X:1
T:Staines Morris
M:2/4
L:1/16
K:F
 A2d2 =B2^c2| d2c-B A3- B|c-dc-B A2G-F|E-D E2 D4|F-GA-B A2G-F|E-D E2 D4|\
F-GA-B A2G-F|E-D E2 D4| F2 FF C2C2|D-EF-G A3- B|c-dc-B A2G-F|E-DE-F D3- E|\
 F2 FF C2C2|D-EF-G A3- B|c-dc-B A2G-F|E-D E2 D4|

